header/static/search-icon.svg

<?xml version="1.0" encoding="UTF-8"?>
<svg width="20px" height="20px" viewBox="0 0 20 20" version="1.1" xmlns="http://www.w3.org/2000/svg" xmlns:xlink="http://www.w3.org/1999/xlink">
    <!-- Generator: Sketch 45.2 (43514) - http://www.bohemiancoding.com/sketch -->
    <title>Search</title>
    <desc>Created with Sketch.</desc>
    <defs></defs>
    <g id="Header_phase1_Search" stroke="none" stroke-width="1" fill="none" fill-rule="evenodd">
        <g id="Icon-Export" transform="translate(-65.000000, -76.000000)">
            <g id="Search" transform="translate(65.000000, 76.000000)">
                <path d="M12.9187,2.2162 C9.9627,-0.7388 5.1717,-0.7388 2.2167,2.2162 L4.8767,4.8762 C6.3627,3.3902 8.7727,3.3902 10.2587,4.8762 C11.7447,6.3622 11.7447,8.7722 10.2587,10.2582 L11.2687,11.2682 L12.9187,12.9182 L18.7757,18.7752 L20.0127,17.5382 L14.0057,11.5312 C15.8047,8.6152 15.4467,4.7452 12.9187,2.2162" id="Fill-1" fill="#C7000A"></path>
                <path d="M4.8762,4.8768 L2.2162,2.2168 C-0.7388,5.1718 -0.7388,9.9628 2.2162,12.9188 C4.7452,15.4468 8.6152,15.8048 11.5312,14.0058 L17.5382,20.0118 L18.7752,18.7748 L12.9182,12.9188 L11.2682,11.2688 L10.2582,10.2588 C8.7722,11.7448 6.3622,11.7448 4.8762,10.2578 C3.3902,8.7728 3.3902,6.3628 4.8762,4.8768" id="Fill-4" fill="#E60013"></path>
            </g>
        </g>
    </g>
</svg>

<svg width="20" height="20" xmlns="http://www.w3.org/2000/svg"><g fill="none" fill-rule="evenodd"><path d="M12.919 2.216a7.568 7.568 0 0 0-10.702 0l2.66 2.66a3.806 3.806 0 0 1 5.382 5.382l1.01 1.01 1.65 1.65 5.857 5.857 1.237-1.237-6.007-6.007c1.799-2.916 1.44-6.786-1.087-9.315" fill="#C7000A"/><path d="M4.876 4.877l-2.66-2.66a7.568 7.568 0 0 0 0 10.702c2.53 2.528 6.4 2.886 9.315 1.087l6.007 6.006 1.237-1.237-5.857-5.856-1.65-1.65-1.01-1.01a3.805 3.805 0 0 1-5.382-5.382" fill="#E60013"/></g></svg>
